X:1
T:Stokin' the Bar-B
M:C
L:1/8
Q:205
C:(c) Greg Anderson, 15 March 2000
R:Reel
N:Spring in Bordeaux heralded the return of patio furniture and, more
N:importantly, barbecues! Guess what we did on St. Patrick's Day 2000 in
N:France
K:G
GA BG e2 d2|c2- cd cB AG|FG Ac f2 (3cec|dg fe dc BA|
GA BG e2 d2|c2- cd cB AG|FG AF DF dc|1BG AF G2- GD:|
2BC AF G2 (3def|:g2 gf gb ag|fd AB cd eg|ec GA Bc df|
ga gf ba gf|g2 gf gb ag|fd AB cd eg|
ec GA Bc df|1gb af g2 (3def:|2gf dB G2- GD||
